packages/foundations/assets/icons/functional/images/arrows/arrow_down_12.svg

<svg width="12" height="12" viewBox="0 0 12 12" fill="none" xmlns="http://www.w3.org/2000/svg">
<g clip-path="url(#clip0_231_23)">
<path fill-rule="evenodd" clip-rule="evenodd" d="M6.41227 10.0123C6.36163 10.072 6.29841 10.1198 6.22714 10.1522C6.15586 10.1847 6.0783 10.201 5.99999 10.2C5.91918 10.1994 5.83933 10.1824 5.76523 10.1502C5.69114 10.1179 5.62434 10.071 5.56885 10.0123L2.56885 7.03111C2.4595 6.91427 2.39907 6.75999 2.39999 6.59997C2.39999 6.26225 2.66227 5.99997 2.99999 5.99997C3.14999 5.99997 3.29999 6.05654 3.41227 6.16882L5.39999 8.15654V2.39997C5.39999 2.06225 5.66227 1.79997 5.99999 1.79997C6.31885 1.79997 6.59999 2.06225 6.59999 2.39997V8.15654L8.56885 6.16797C8.68762 6.06184 8.84073 6.00218 8.99999 5.99997C9.31885 5.99997 9.59999 6.26225 9.59999 6.59997C9.60122 6.73858 9.55323 6.87313 9.46456 6.97968L6.41227 10.0123Z" fill="#1A1C1F"/>
</g>
<defs>
<clipPath id="clip0_231_23">
<rect width="12" height="12" fill="white"/>
</clipPath>
</defs>
</svg>

<svg xmlns="http://www.w3.org/2000/svg" width="12" height="12" fill="none"><g clip-path="url(#a)"><path fill="#1A1C1F" fill-rule="evenodd" d="M6.412 10.012A.53.53 0 0 1 6 10.2a.6.6 0 0 1-.431-.188l-3-2.98A.63.63 0 0 1 2.4 6.6c0-.338.262-.6.6-.6.15 0 .3.057.412.169L5.4 8.157V2.4c0-.338.262-.6.6-.6.319 0 .6.262.6.6v5.757l1.969-1.989A.66.66 0 0 1 9 6c.319 0 .6.262.6.6a.6.6 0 0 1-.135.38z" clip-rule="evenodd"/></g><defs><clipPath id="a"><path fill="#fff" d="M0 0h12v12H0z"/></clipPath></defs></svg>
